svgs/solid/pen-paintbrush.svg

<svg xmlns="http://www.w3.org/2000/svg" viewBox="0 0 576 512"><!--! Font Awesome Pro 6.1.1 by @fontawesome - https://fontawesome.com License - https://fontawesome.com/license (Commercial License) Copyright 2022 Fonticons, Inc. --><path d="M95.6 16.4L226.3 147.1L147.1 226.3L16.4 95.6C-5.467 73.73-5.467 38.27 16.4 16.4C38.27-5.467 73.73-5.467 95.6 16.4H95.6zM400 512C346.4 512 301.5 474.3 290.6 423.9L423.9 290.6C474.3 301.5 512 346.4 512 400C512 403.9 511.8 407.8 511.4 411.6C509.6 429.1 521.6 448 539.2 448H544C561.7 448 576 462.3 576 480C576 497.7 561.7 512 544 512L400 512zM524.7 42.75C549.7 67.74 549.7 108.3 524.7 133.3L468.3 189.7L354.3 75.72L410.7 19.32C435.7-5.678 476.3-5.678 501.3 19.32L524.7 42.75zM76.89 353.2L331.7 98.34L445.7 212.3L190.8 467.1C184.1 473.8 175.8 478.7 166.6 481.4L62.59 511.1C54.21 513.5 45.19 511.1 39.03 504.1C32.87 498.8 30.53 489.8 32.92 481.4L62.65 377.4C65.26 368.2 70.16 359.9 76.89 353.2z"/></svg>

<svg xmlns="http://www.w3.org/2000/svg" viewBox="0 0 576 512"><!--! Font Awesome Pro 6.4.2 by @fontawesome - https://fontawesome.com License - https://fontawesome.com/license (Commercial License) Copyright 2023 Fonticons, Inc. --><path d="M95.6 16.4L226.3 147.1l-79.2 79.2L16.4 95.6c-21.9-21.9-21.9-57.3 0-79.2s57.3-21.9 79.2 0zM400 512c-53.6 0-98.5-37.7-109.4-88.1L423.9 290.6c50.3 11 88.1 55.8 88.1 109.4c0 3.9-.2 7.8-.6 11.6c-1.8 17.5 10.2 36.4 27.8 36.4H544c17.7 0 32 14.3 32 32s-14.3 32-32 32H400zM501.3 19.3l23.4 23.4c25 25 25 65.5 0 90.5l-56.4 56.4L354.3 75.7l56.4-56.4c25-25 65.5-25 90.5 0zM76.9 353.2L331.7 98.3 445.7 212.3 190.8 467.1c-6.7 6.7-15.1 11.6-24.2 14.2l-104 29.7c-8.4 2.4-17.4 .1-23.6-6.1s-8.5-15.2-6.1-23.6l29.7-104c2.6-9.2 7.5-17.5 14.2-24.2z"/></svg>
